src/assets/duotone/Map.svg

<svg width="24" height="24" viewBox="0 0 24 24"  xmlns="http://www.w3.org/2000/svg">
<path opacity="0.4" d="M19.8801 20.9401C18.9301 21.6401 17.6801 22.0001 16.1901 22.0001H7.81009C7.57009 22.0001 7.3301 21.9901 7.1001 21.9601L14.0001 15.0601L19.8801 20.9401Z" />
<path opacity="0.4" d="M22.0001 7.8101V16.1901C22.0001 17.6801 21.6401 18.9301 20.9401 19.8801L15.0601 14.0001L21.9601 7.1001C21.9901 7.3301 22.0001 7.5701 22.0001 7.8101Z" />
<path opacity="0.4" d="M15.06 14L20.94 19.88C20.65 20.3 20.3 20.65 19.88 20.94L14 15.06L7.10001 21.96C6.46001 21.92 5.88001 21.79 5.35001 21.59C3.21001 20.81 2 18.91 2 16.19V7.81C2 4.17 4.17 2 7.81 2H16.19C18.91 2 20.81 3.21 21.59 5.35C21.79 5.88 21.92 6.46 21.96 7.1L15.06 14Z" />
<path d="M15.0601 14.0001L20.9401 19.8801C20.6501 20.3001 20.3001 20.6501 19.8801 20.9401L14.0001 15.0601L7.1001 21.9601C6.4601 21.9201 5.8801 21.7901 5.3501 21.5901L5.74008 21.2001L21.5901 5.3501C21.7901 5.8801 21.9201 6.4601 21.9601 7.1001L15.0601 14.0001Z" />
<path d="M12.2398 7.92979C11.8598 6.27979 10.3998 5.53979 9.11981 5.52979C7.83981 5.52979 6.37981 6.26978 5.99981 7.91978C5.57981 9.74978 6.6998 11.2798 7.7098 12.2398C8.1098 12.6198 8.60981 12.7998 9.11981 12.7998C9.62981 12.7998 10.1298 12.6098 10.5298 12.2398C11.5398 11.2798 12.6598 9.74979 12.2398 7.92979ZM9.14981 9.48978C8.59981 9.48978 8.14981 9.03978 8.14981 8.48978C8.14981 7.93978 8.58981 7.48978 9.14981 7.48978H9.15982C9.70982 7.48978 10.1598 7.93978 10.1598 8.48978C10.1598 9.03978 9.69981 9.48978 9.14981 9.48978Z" />
</svg>

<?xml version="1.0" encoding="UTF-8"?>
<svg width="24" height="24" viewBox="0 0 24 24" xmlns="http://www.w3.org/2000/svg">
 <path d="m19.88 20.94c-0.95 0.7-2.2 1.06-3.69 1.06h-8.38c-0.24 0-0.47999-0.01-0.70999-0.04l6.9-6.9 5.88 5.88z" opacity=".4"/>
 <path d="m22 7.8101v8.38c0 1.49-0.36 2.74-1.06 3.69l-5.88-5.88 6.9-6.9c0.03 0.23 0.04 0.47 0.04 0.71z" opacity=".4"/>
 <path d="m15.06 14 5.88 5.88c-0.29 0.42-0.64 0.77-1.06 1.06l-5.88-5.88-6.9 6.9c-0.64-0.04-1.22-0.17-1.75-0.37-2.14-0.78-3.35-2.68-3.35-5.4v-8.38c0-3.64 2.17-5.81 5.81-5.81h8.38c2.72 0 4.62 1.21 5.4 3.35 0.2 0.53 0.33 1.11 0.37 1.75l-6.9 6.9z" opacity=".4"/>
 <path d="m15.06 14 5.88 5.88c-0.29 0.42-0.64 0.77-1.06 1.06l-5.88-5.88-6.9 6.9c-0.64-0.04-1.22-0.17-1.75-0.37l0.38998-0.39 15.85-15.85c0.2 0.53 0.33 1.11 0.37 1.75l-6.9 6.9z"/>
 <path d="m12.24 7.9298c-0.38-1.65-1.84-2.39-3.12-2.4-1.28 0-2.74 0.73999-3.12 2.39-0.42 1.83 0.69999 3.36 1.71 4.32 0.4 0.38 0.90001 0.56 1.41 0.56s1.01-0.19 1.41-0.56c1.01-0.96 2.13-2.49 1.71-4.31zm-3.09 1.56c-0.55 0-1-0.45-1-1s0.44-1 1-1h0.01001c0.55 0 0.99998 0.45 0.99998 1s-0.45999 1-1.01 1z"/>
</svg>
